svg/warning.svg

<svg width="24" height="24" viewBox="0 0 24 24" fill="none" xmlns="http://www.w3.org/2000/svg">
<path d="M12 14C11.4477 14 11 13.5523 11 13V10C11 9.44772 11.4477 9 12 9C12.5523 9 13 9.44772 13 10V13C13 13.5523 12.5523 14 12 14Z" fill="#0D0D0D"/>
<path d="M10.5 16.5C10.5 15.6716 11.1716 15 12 15C12.8284 15 13.5 15.6716 13.5 16.5C13.5 17.3284 12.8284 18 12 18C11.1716 18 10.5 17.3284 10.5 16.5Z" fill="#0D0D0D"/>
<path d="M10.2301 3.2156C10.98 1.79093 13.02 1.79092 13.7698 3.2156L22.1135 19.0685C22.8144 20.4003 21.8486 22 20.3436 22H3.65635C2.15133 22 1.18556 20.4003 1.88651 19.0685L10.2301 3.2156ZM20.3436 20L12 4.14709L3.65635 20L20.3436 20Z" fill="#0D0D0D"/>
</svg>

<svg width="24" height="24" fill="none" xmlns="http://www.w3.org/2000/svg"><path d="M12 14a1 1 0 01-1-1v-3a1 1 0 112 0v3a1 1 0 01-1 1zM10.5 16.5a1.5 1.5 0 113 0 1.5 1.5 0 01-3 0z" fill="#0D0D0D"/><path d="M10.23 3.216c.75-1.425 2.79-1.425 3.54 0l8.343 15.852C22.814 20.4 21.85 22 20.343 22H3.657c-1.505 0-2.47-1.6-1.77-2.931L10.23 3.216zM20.344 20L12 4.147 3.656 20h16.688z" fill="#0D0D0D"/></svg>
